X: 7
M: C|
L: 1/8
P: AA BB ad lib.
Q: 1/2=88 "wistful"
K: Dm
V: 1
"A"[|] e2 |\
f2gf e2fe | d2e2 ^c2a2 |\
e2g2 f2e2 | f2e2 d2 ",  "e2 |\
f2c2 f2B2 | f2A2 G2g2 |\
c2f2 g2e2 | f6 :|
"B"|: A2 |\
c2BA B2AG | F2E2 F2 ",  "g2 |\
a4 g2ag | f2gf e2(fe/f/) |\
g2ed ^c2ae | f2e2 d2 :|
V: 2
z2 | z4 z2E2 | F2GF E2^c2 | A2e2 d2B2 | "A"A2G2 "Dm"F2z2 |
V: 3 clef=bass middle=d
z2 | "Dm"d'2d2 "Am"c2c'2 | "Bb"b2"Gm"g2 "A"a2A2 | "A"^c2A2 "D"d2"Edim"G2 | "A"A2a2 "Dm"d4 |
"F"a4 "Gm"g4 | "F"f4 "C"e4 | "F"f2A2 "Gm"B2"C"c2 | "F"f6 :||: z2 |
"F"f4 F4 | "F"f4 A4 | "F"f4 "Gm"B4 | "C"c4 "F"f2"C"e2 |
"F"f4 "A"e4 | "Dm"d4 "A"^c2A2 | "Gm"G2B2 "A"A2ag | "A"a2A2 "Dm"d2 :|


